svgs/thin/square-j.svg

<svg xmlns="http://www.w3.org/2000/svg" viewBox="0 0 448 512"><!-- Font Awesome Pro 6.0.0-alpha2 by @fontawesome - https://fontawesome.com License - https://fontawesome.com/license (Commercial License) --><path d="M384 32H64C28.654 32 0 60.654 0 96V416C0 451.346 28.654 480 64 480H384C419.346 480 448 451.346 448 416V96C448 60.654 419.346 32 384 32ZM432 416C432 442.467 410.467 464 384 464H64C37.533 464 16 442.467 16 416V96C16 69.533 37.533 48 64 48H384C410.467 48 432 69.533 432 96V416ZM312 128C307.594 128 304 131.578 304 136V296C304 335.703 268.125 368 224 368S144 335.703 144 296C144 291.578 140.406 288 136 288S128 291.578 128 296C128 344.531 171.062 384 224 384S320 344.531 320 296V136C320 131.578 316.406 128 312 128Z"/></svg>

<svg xmlns="http://www.w3.org/2000/svg" viewBox="0 0 448 512"><!--! Font Awesome Pro 6.3.0 by @fontawesome - https://fontawesome.com License - https://fontawesome.com/license (Commercial License) Copyright 2023 Fonticons, Inc. --><path d="M384 32H64C28.65 32 0 60.65 0 96v320c0 35.35 28.65 64 64 64h320c35.35 0 64-28.65 64-64V96C448 60.65 419.3 32 384 32zM432 416c0 26.47-21.53 48-48 48H64c-26.47 0-48-21.53-48-48V96c0-26.47 21.53-48 48-48h320c26.47 0 48 21.53 48 48V416zM312 128c-4.406 0-8 3.578-8 8v160c0 39.7-35.88 72-80 72s-80-32.3-80-72C144 291.6 140.4 288 136 288S128 291.6 128 296C128 344.5 171.1 384 224 384s96-39.47 96-88v-160C320 131.6 316.4 128 312 128z"/></svg>
